X:1
T:Lavender Cries
B:Broadwood, L, 1893, English County Songs, London, Leadenhall Press
Z:Lucy Broadwood
F:http://www.folkinfo.org/songs
T:Tune 1
M:3/4
L:1/8
K:G
GA |B3 c B2 |AB G2 z2 |A4 FE | DG G2 z
w:Will you buy my sweet la-ven-der? Sweet bloom-ing lav-en-der?
 A |B3 d cB |AB G2 z2 || [M:C] A2 G2 F2 ED |D G3 |]
w:O buy my pret-ty la-ven-der, Six-teen bunch-es a pen-ny!
T:Tune 2
M:3/4
L:1/8
K:C
c4 d4 |e4 d4 c4 |d4 d4 c4 | A4 A4 G4- |G4       c4 d4 |e4 d4 c4 |d4 c8 |]
w: Six-teen bunch-es a pen-ny, sweet la-ven-der, *  Six-teen bunch-es a pen-ny!
T:Tune 3
M:3/4
L:1/8
K:C
c4 d4 |e4 d4 c4 |e4 e4 f4 |d4 d4 c4- | c4       c4 d4 |e4 d4 c4 |d8 c4 |]
w:Six-teen bunch-es a pen-ny, sweet la-ven-der, * six-teen bunch-es a pen-ny.
T: Tune 4
M:3/4
L:1/8
K:C
c4 d4 |e4 d4 c4 |e4 e4 f4 |e2 d2 c2 A2 G4- |G4     c4 d4 |e4 d4 c4 |d8 c4 |]
w:Six-teen bunch-es a pen-ny, sweet la--ven--der, * six-teen bunch-es a pen-ny.
